app/core/images/btc.svg

<?xml version="1.0" encoding="UTF-8"?>
<svg width="21px" height="21px" viewBox="0 0 21 21" version="1.1" xmlns="http://www.w3.org/2000/svg" xmlns:xlink="http://www.w3.org/1999/xlink">
    <!-- Generator: Sketch 46.2 (44496) - http://www.bohemiancoding.com/sketch -->
    <title>Bitcoin</title>
    <desc>Created with Sketch.</desc>
    <defs></defs>
    <g id="Symbols" stroke="none" stroke-width="1" fill="none" fill-rule="evenodd">
        <g id="header" transform="translate(-870.000000, -28.000000)" fill-rule="nonzero">
            <g id="settings">
                <g transform="translate(870.000000, 0.000000)">
                    <g id="chain" transform="translate(0.000000, 28.000000)">
                        <g id="Bitcoin">
                            <path d="M20.6857137,13.0400787 C19.283158,18.6650685 13.5853168,22.0883619 7.95901443,20.6856418 C2.33500919,19.2832498 -1.08868358,13.5857451 0.314528371,7.96108341 C1.71642768,2.33543738 7.41426891,-1.08818413 13.0389305,0.314207892 C18.6649047,1.71659991 22.0882693,7.41476083 20.6857137,13.0400787 Z" id="Shape" fill="#C5BDA8"></path>
                            <path d="M14.9738648,9.22624189 C15.1819395,7.8602522 14.1229472,7.12592849 12.6749174,6.63605853 L13.144637,4.78565259 L11.9977764,4.50494781 L11.5404695,6.30659132 C11.2389735,6.23280606 10.9293114,6.16319127 10.6216091,6.0942181 L11.0821826,4.28070478 L9.93597534,4 L9.46592912,5.84976433 C9.21637018,5.79394418 8.9713843,5.73876564 8.73358468,5.68069985 L8.73489128,5.67492535 L7.15326249,5.28707154 L6.84817342,6.49009205 C6.84817342,6.49009205 7.69909101,6.68161291 7.68112538,6.69348271 C8.14561859,6.80736865 8.22956708,7.1092466 8.21552123,7.34856748 L7.68047208,9.45658021 C7.71248357,9.46460035 7.75396785,9.47614935 7.79969854,9.49411445 C7.76148075,9.48481109 7.72064977,9.47454532 7.6785122,9.46460035 L6.92852878,12.4176147 C6.87169206,12.5562027 6.72764037,12.7640846 6.40295243,12.6851664 C6.4143851,12.7015275 5.56934717,12.4808134 5.56934717,12.4808134 L5,13.7701305 L6.49245393,14.135528 C6.77010458,14.2038595 7.04220223,14.2753992 7.31005345,14.3427683 L6.83543415,16.2143474 L7.98098809,16.4950522 L8.45103431,14.643363 C8.76396293,14.7267725 9.06774541,14.8037658 9.36499494,14.8762678 L8.89658195,16.7192952 L10.0434425,17 L10.5180618,15.1319498 C12.4737023,15.4954224 13.9442709,15.3488143 14.5632685,13.6116526 C15.0620597,12.2129408 14.5384433,11.406115 13.5095026,10.8799941 C14.2588327,10.710288 14.8232802,10.2261925 14.9738648,9.22624189 L14.9738648,9.22624189 Z M12.3534959,12.8349826 C11.999083,14.2336944 9.60116132,13.477556 8.82373949,13.2879599 L9.4535165,10.8084545 C10.2309383,10.9990129 12.7239146,11.3762801 12.3534959,12.8349826 Z M12.7082355,9.20603114 C12.3848541,10.4783456 10.3890359,9.83192261 9.74161988,9.67344471 L10.3126003,7.42459838 C10.9600163,7.58307628 13.0450094,7.87885892 12.7082355,9.20603114 L12.7082355,9.20603114 Z" id="Shape" fill="#FFFFFF"></path>
                        </g>
                    </g>
                </g>
            </g>
        </g>
    </g>
</svg>

<svg width="21" height="21" xmlns="http://www.w3.org/2000/svg"><g fill-rule="nonzero" fill="none"><path d="M20.686 13.04c-1.403 5.625-7.1 9.048-12.727 7.646-5.624-1.403-9.048-7.1-7.644-12.725 1.401-5.626 7.1-9.05 12.724-7.647 5.626 1.403 9.05 7.1 7.647 12.726z" fill="#C5BDA8"/><path d="M14.974 9.226c.208-1.366-.851-2.1-2.3-2.59l.47-1.85-1.146-.281-.458 1.802a48.713 48.713 0 0 0-.918-.213l.46-1.813L9.936 4l-.47 1.85c-.25-.056-.495-.111-.732-.17v-.005l-1.58-.388-.306 1.203s.851.192.833.203c.465.114.549.416.535.656L7.68 9.457c.032.008.074.02.12.037l-.121-.03-.75 2.954c-.057.138-.201.346-.526.267.011.017-.834-.204-.834-.204L5 13.77l1.492.365c.278.068.55.14.818.207l-.475 1.871 1.146.281.47-1.852c.313.084.617.16.914.233l-.468 1.843 1.146.281.475-1.868c1.956.363 3.426.217 4.045-1.52.5-1.4-.025-2.206-1.053-2.732.749-.17 1.313-.654 1.464-1.654zm-2.62 3.609c-.355 1.399-2.753.643-3.53.453l.63-2.48c.777.191 3.27.568 2.9 2.027zm.354-3.629c-.323 1.272-2.319.626-2.966.467l.57-2.248c.648.158 2.733.454 2.396 1.781z" fill="#FFF"/></g></svg>
